!!!OTL: Muede kehrt ein Wandersmann zurueck in die Heimat seiner Liebe Glueck
!!!ARE: Europa, Mitteleuropa, Deutschland, Brandenburg, Bauzen
!!!SCT: D1012
!!!YEM: Copyright 1995, estate of Helmut Schaffrath.
**kern
*ICvox
*Ivox
*M4/4
*k[f#]
*G:
{8d
8d
=1
4.b
8a
8.g
16f#
8g
8a
=2
2d
4r}
{8f#
8g
=3
4.a
8g
8f#
8a
8ee
8dd
=4
2b
4r}
{8g
8a
=5
8b
8dd
2dd
8cc
8b
=6
8a
8b
4cc
8r}
{8cc
8cc
8ee
=7
4.dd
8cc
8b
8a
8b
8a
=8
2.g}
{8g
8a
=9
8b
8dd
2dd
8cc
8b
=10
8a
8b
4cc
8r}
{8cc
8cc
8ee
=11
4.dd
8cc
8b
8a
8b
8a
=12
2.g}
==
!!!AGN: Liebes - Lied
!! DVA-Signatur A 59 141
!!!ONB: ESAC (Essen Associative Code) Database: DVA
!!!AMT: simple quadruple
!!!AIN: vox
!!!EED: Helmut Schaffrath
!!!EEV: 1.0
*-
